X:25
T:Klamm s1.1 #1  Em
M:3/2
G:Lark15
Q: 1/4=170
S: dance, dif tune  https://www.youtube.com/watch?v=sboszol0jVY
K:Em
L:1/8
E2 FG E2D2G4|(3GAG FG B2A2 FAGF|E2 FG E2D2G4|(3GAG FG B2A2 F4|
E2 FG E2D2G4|(3GAG FG B2A2 FAGF|E2 FG E2D2G4|(3GAG FG B2A2 B4|
|:B2AB GBdA B2G2|cBAB G2AF G2  z z6|B2AB GBdA B2G2|cBAB G2 F2E4:||

